dist/quote-icon.svg

<svg width="20" height="21" viewBox="0 0 20 21" fill="none" xmlns="http://www.w3.org/2000/svg">
<path d="M13 12.9962C13.5523 12.9962 14 12.5485 14 11.9962C14 11.4439 13.5523 10.9962 13 10.9962V12.9962ZM6 11.9962V10.9962C5.47033 10.9962 5.03253 11.4092 5.0017 11.938C4.97086 12.4668 5.35768 12.9279 5.88376 12.9894L6 11.9962ZM8.33333 8.17369L9.33333 8.17369L8.33333 8.17369ZM8.33333 4.89719L9.12904 5.50287L9.12904 5.50287L8.33333 4.89719ZM11.6434 6.07741C11.9937 6.50445 12.6238 6.56672 13.0508 6.2165C13.4778 5.86628 13.5401 5.23618 13.1899 4.80914L11.6434 6.07741ZM11.8333 9.71977C12.3856 9.71977 12.8333 9.27206 12.8333 8.71977C12.8333 8.16749 12.3856 7.71977 11.8333 7.71977L11.8333 9.71977ZM6 7.71977C5.44772 7.71977 5 8.16749 5 8.71977C5 9.27205 5.44772 9.71977 6 9.71977L6 7.71977ZM7 15H8V14H7V15ZM11.5 15V14H11.0546L10.7567 14.331L11.5 15ZM13 10.9962H6.1924V12.9962H13V10.9962ZM6.1924 10.9962H6V12.9962H6.1924V10.9962ZM6 11.9962C5.88376 12.9894 5.8839 12.9895 5.88405 12.9895C5.8841 12.9895 5.88425 12.9895 5.88435 12.9895C5.88455 12.9895 5.88475 12.9896 5.88496 12.9896C5.88536 12.9896 5.88577 12.9897 5.88619 12.9897C5.88702 12.9898 5.88787 12.9899 5.88874 12.99C5.89048 12.9902 5.89231 12.9904 5.89421 12.9906C5.89801 12.991 5.90214 12.9914 5.90657 12.9919C5.91545 12.9927 5.92558 12.9936 5.93693 12.9945C5.95959 12.9962 5.98718 12.9979 6.01923 12.9989C6.08318 13.0009 6.16583 13.0006 6.26329 12.9937L6.12152 10.9987C6.09926 11.0003 6.0857 11 6.08338 10.9999C6.0823 10.9999 6.08423 10.9999 6.08953 11.0003C6.09219 11.0005 6.09571 11.0008 6.10014 11.0013C6.10236 11.0015 6.1048 11.0017 6.10748 11.002C6.10882 11.0022 6.11022 11.0023 6.11168 11.0025C6.11241 11.0026 6.11316 11.0026 6.11392 11.0027C6.1143 11.0028 6.11468 11.0028 6.11507 11.0029C6.11526 11.0029 6.11546 11.0029 6.11565 11.0029C6.11575 11.0029 6.1159 11.003 6.11595 11.003C6.1161 11.003 6.11624 11.003 6 11.9962ZM6.26329 12.9937C6.71685 12.9615 7.5336 12.7792 8.22317 11.9953C8.9041 11.2213 9.33333 10.0046 9.33333 8.17369L7.33333 8.17369C7.33333 9.71548 6.97138 10.3903 6.72149 10.6744C6.48024 10.9486 6.22652 10.9913 6.12152 10.9987L6.26329 12.9937ZM9.33333 8.17369C9.33333 7.61011 9.23988 6.78541 9.2034 6.24343C9.1828 5.93741 9.17605 5.69353 9.1876 5.51527C9.20301 5.27741 9.24082 5.35602 9.12904 5.50287L7.53762 4.29151C7.25561 4.66201 7.2083 5.13114 7.19179 5.38597C7.17142 5.70041 7.18595 6.0514 7.20791 6.37773C7.25655 7.10044 7.33333 7.69034 7.33333 8.17369L9.33333 8.17369ZM9.12904 5.50287C9.43093 5.10627 9.67609 5.02407 9.83045 5.00528C10.02 4.9822 10.2654 5.03438 10.564 5.19221C10.8579 5.34755 11.1312 5.56764 11.3406 5.76404C11.4425 5.85955 11.5228 5.94339 11.5759 6.00136C11.6024 6.0302 11.6217 6.05223 11.6333 6.06561C11.6391 6.07229 11.6429 6.07677 11.6446 6.07882C11.6455 6.07985 11.6458 6.08026 11.6456 6.08004C11.6455 6.07992 11.6453 6.07965 11.6449 6.07921C11.6447 6.07899 11.6445 6.07873 11.6443 6.07843C11.6442 6.07828 11.644 6.07803 11.6439 6.07795C11.6437 6.07768 11.6434 6.07741 12.4167 5.44327C13.1899 4.80914 13.1896 4.80884 13.1894 4.80853C13.1893 4.80841 13.189 4.80809 13.1888 4.80785C13.1884 4.80738 13.188 4.80686 13.1876 4.8063C13.1866 4.80518 13.1855 4.80388 13.1843 4.8024C13.1819 4.79946 13.1789 4.79583 13.1752 4.79154C13.168 4.78297 13.1585 4.77176 13.1468 4.75815C13.1233 4.73098 13.0908 4.69413 13.05 4.64966C12.9687 4.56102 12.8531 4.44054 12.7088 4.30525C12.4261 4.04003 12.0067 3.69252 11.4985 3.42397C10.9951 3.15789 10.3289 2.92986 9.58882 3.01993C8.8135 3.11429 8.11074 3.53858 7.53762 4.29151L9.12904 5.50287ZM11.8333 7.71977L6 7.71977L6 9.71977L11.8333 9.71977L11.8333 7.71977ZM3 2H17V0H3V2ZM18 3V13H20V3H18ZM2 13V3H0V13H2ZM7 14H3V16H7V14ZM17 14H11.5V16H17V14ZM6 19.5C6 19.6712 6.0517 20.1156 6.49146 20.3844C6.86458 20.6124 7.22613 20.5209 7.31818 20.4954C7.54104 20.4335 7.71757 20.3051 7.77885 20.2609C7.95936 20.1305 8.17592 19.9368 8.38975 19.7348C8.83301 19.3162 9.41146 18.7211 9.97595 18.1252C10.5439 17.5258 11.1106 16.9118 11.5345 16.4486C11.7467 16.2168 11.9236 16.0222 12.0475 15.8855C12.1095 15.8171 12.1583 15.7632 12.1916 15.7262C12.2083 15.7078 12.2211 15.6935 12.2298 15.6839C12.2342 15.6791 12.2375 15.6754 12.2398 15.6729C12.2409 15.6716 12.2418 15.6707 12.2423 15.67C12.2426 15.6697 12.2429 15.6694 12.243 15.6693C12.2431 15.6692 12.2432 15.6691 12.2432 15.6691C12.2433 15.669 12.2433 15.669 11.5 15C10.7567 14.331 10.7567 14.331 10.7567 14.3311C10.7567 14.3311 10.7566 14.3311 10.7566 14.3312C10.7565 14.3313 10.7563 14.3315 10.756 14.3318C10.7555 14.3324 10.7547 14.3332 10.7537 14.3344C10.7516 14.3367 10.7485 14.3401 10.7443 14.3448C10.736 14.354 10.7236 14.3678 10.7073 14.3858C10.6747 14.4219 10.6268 14.4749 10.5657 14.5423C10.4436 14.677 10.2689 14.8692 10.0592 15.0983C9.63941 15.5569 9.08113 16.1617 8.52405 16.7498C7.96354 17.3414 7.41699 17.9026 7.0165 18.2808C6.80845 18.4773 6.67345 18.5922 6.60787 18.6395C6.54611 18.6841 6.62596 18.6119 6.78289 18.5683C6.84199 18.5519 7.17826 18.4602 7.53436 18.6778C7.95709 18.9361 8 19.3601 8 19.5H6ZM8 19.5V15H6V19.5H8ZM0 13C0 14.6569 1.34315 16 3 16V14C2.44772 14 2 13.5523 2 13H0ZM18 13C18 13.5523 17.5523 14 17 14V16C18.6569 16 20 14.6569 20 13H18ZM17 2C17.5523 2 18 2.44772 18 3H20C20 1.34315 18.6569 0 17 0V2ZM3 0C1.34315 0 0 1.34315 0 3H2C2 2.44772 2.44772 2 3 2V0Z" fill="black"/>
</svg>

<svg xmlns="http://www.w3.org/2000/svg" width="20" height="21" fill="none"><path fill="#000" d="M13 12.996a1 1 0 1 0 0-2v2Zm-7-1v-1a1 1 0 0 0-.116 1.993L6 11.996Zm2.333-3.822h1-1Zm0-3.277.796.606-.796-.606Zm3.31 1.18A1 1 0 0 0 13.19 4.81l-1.547 1.268Zm.19 3.643a1 1 0 1 0 0-2v2ZM6 7.72a1 1 0 0 0 0 2v-2ZM7 15h1v-1H7v1Zm4.5 0v-1h-.445l-.298.331.743.669Zm1.5-4.004H6.192v2H13v-2Zm-6.808 0H6v2h.192v-2Zm-.192 1-.116.993h.002a.47.47 0 0 0 .008.002h.013a2.775 2.775 0 0 0 .112.008c.064.002.147.002.244-.005l-.141-1.995a.383.383 0 0 1-.039 0L6.09 11l.01.001.007.001h.008v.001L6 11.996Zm.263.998a2.878 2.878 0 0 0 1.96-.999c.681-.774 1.11-1.99 1.11-3.821h-2c0 1.541-.362 2.216-.612 2.5-.24.275-.494.317-.6.325l.142 1.995Zm3.07-4.82c0-.564-.093-1.389-.13-1.93a5.92 5.92 0 0 1-.015-.729c.015-.238.053-.159-.059-.012L7.538 4.292c-.282.37-.33.84-.346 1.094a7.86 7.86 0 0 0 .016.992c.049.722.125 1.312.125 1.796h2ZM9.13 5.503c.302-.397.547-.479.701-.498.19-.023.435.03.734.187.294.156.567.376.777.572a4.444 4.444 0 0 1 .305.316h-.001v-.002h-.001l.773-.635.772-.634v-.001l-.001-.002a5.721 5.721 0 0 0-1.69-1.382c-.503-.266-1.17-.494-1.91-.404-.774.094-1.477.519-2.05 1.272l1.591 1.21Zm2.704 2.217H6v2h5.833v-2ZM3 2h14V0H3v2Zm15 1v10h2V3h-2ZM2 13V3H0v10h2Zm5 1H3v2h4v-2Zm10 0h-5.5v2H17v-2ZM6 19.5a1.032 1.032 0 0 0 1.318.995c.223-.062.4-.19.46-.234.181-.13.398-.324.612-.526a44.466 44.466 0 0 0 1.586-1.61 136.173 136.173 0 0 0 2.216-2.399l.038-.042.01-.011.002-.003h.001L11.5 15l-.743-.669h-.001l-.002.003a1.238 1.238 0 0 0-.01.01l-.037.042a108.722 108.722 0 0 1-.648.712c-.42.459-.978 1.064-1.535 1.652a42.738 42.738 0 0 1-1.507 1.53 5 5 0 0 1-.41.36c-.06.044.019-.028.176-.072A.968.968 0 0 1 8 19.5H6Zm2 0V15H6v4.5h2ZM0 13a3 3 0 0 0 3 3v-2a1 1 0 0 1-1-1H0Zm18 0a1 1 0 0 1-1 1v2a3 3 0 0 0 3-3h-2ZM17 2a1 1 0 0 1 1 1h2a3 3 0 0 0-3-3v2ZM3 0a3 3 0 0 0-3 3h2a1 1 0 0 1 1-1V0Z"/></svg>
